icons/ad.svg

<?xml version="1.0" ?>
<svg xmlns="http://www.w3.org/2000/svg" xmlns:ev="http://www.w3.org/2001/xml-events" xmlns:xlink="http://www.w3.org/1999/xlink" baseProfile="full" height="493px" version="1.1" viewBox="-1023.6793396861094 72.68422510634718 12288.091294554015 10092.631549787306" width="600px">
	<defs/>
	<path d="M 3720.0,9257.0 C 3662.0,9222.0 3571.0,9170.0 3517.0,9141.0 L 3419.0,9088.0 L 3362.0,9107.0 C 3307.0,9126.0 3302.0,9126.0 3228.0,9110.0 C 3186.0,9100.0 3145.0,9090.0 3136.0,9087.0 C 3128.0,9084.0 3100.0,9043.0 3074.0,8996.0 C 3048.0,8949.0 3021.0,8910.0 3016.0,8910.0 C 3010.0,8910.0 2932.0,8901.0 2842.0,8891.0 L 2679.0,8872.0 L 2584.0,8901.0 C 2532.0,8916.0 2486.0,8931.0 2482.0,8934.0 C 2478.0,8936.0 2435.0,8988.0 2385.0,9049.0 C 2315.0,9134.0 2289.0,9159.0 2270.0,9159.0 C 2256.0,9160.0 2166.0,9148.0 2069.0,9133.0 L 1893.0,9107.0 L 1865.0,9012.0 C 1842.0,8931.0 1839.0,8906.0 1844.0,8841.0 L 1851.0,8765.0 L 1736.0,8645.0 L 1621.0,8525.0 L 1620.0,8423.0 L 1620.0,8322.0 L 1658.0,8313.0 L 1695.0,8304.0 L 1701.0,8225.0 C 1706.0,8155.0 1713.0,8131.0 1759.0,8036.0 C 1798.0,7956.0 1817.0,7902.0 1831.0,7828.0 C 1841.0,7774.0 1850.0,7722.0 1850.0,7712.0 C 1850.0,7702.0 1817.0,7673.0 1765.0,7640.0 L 1680.0,7585.0 L 1680.0,7525.0 L 1680.0,7465.0 L 1582.0,7437.0 C 1514.0,7417.0 1456.0,7390.0 1388.0,7349.0 L 1290.0,7291.0 L 1223.0,7319.0 C 1174.0,7340.0 1126.0,7351.0 1051.0,7359.0 C 993.0,7364.0 943.0,7367.0 940.0,7365.0 C 936.0,7363.0 930.0,7326.0 926.0,7283.0 C 923.0,7240.0 915.0,7155.0 909.0,7093.0 C 896.0,6967.0 907.0,6979.0 793.0,6965.0 L 741.0,6958.0 L 674.0,6854.0 L 608.0,6749.0 L 556.0,6752.0 L 505.0,6755.0 L 497.0,6679.0 L 488.0,6604.0 L 548.0,6484.0 C 589.0,6402.0 629.0,6341.0 675.0,6288.0 L 741.0,6212.0 L 813.0,6205.0 C 943.0,6194.0 936.0,6198.0 965.0,6109.0 C 980.0,6066.0 990.0,6026.0 988.0,6020.0 C 986.0,6015.0 925.0,5960.0 852.0,5897.0 C 729.0,5792.0 708.0,5778.0 582.0,5721.0 C 507.0,5686.0 440.0,5653.0 433.0,5647.0 C 427.0,5640.0 372.0,5513.0 311.0,5364.0 C 250.0,5215.0 178.0,5044.0 150.0,4985.0 C 122.0,4925.0 101.0,4871.0 103.0,4866.0 C 106.0,4860.0 119.0,4848.0 133.0,4841.0 C 158.0,4828.0 163.0,4830.0 254.0,4904.0 L 349.0,4980.0 L 426.0,4980.0 C 497.0,4980.0 520.0,4986.0 684.0,5047.0 C 784.0,5083.0 870.0,5113.0 875.0,5113.0 C 883.0,5113.0 1136.0,4950.0 1168.0,4925.0 C 1169.0,4924.0 1166.0,4893.0 1160.0,4857.0 C 1150.0,4794.0 1151.0,4789.0 1194.0,4669.0 C 1218.0,4601.0 1241.0,4537.0 1245.0,4528.0 C 1250.0,4516.0 1268.0,4508.0 1300.0,4504.0 C 1326.0,4501.0 1353.0,4495.0 1359.0,4491.0 C 1369.0,4485.0 1608.0,3982.0 1613.0,3957.0 C 1614.0,3952.0 1563.0,3907.0 1500.0,3858.0 C 1437.0,3809.0 1337.0,3726.0 1278.0,3674.0 C 1174.0,3582.0 1170.0,3577.0 1164.0,3529.0 C 1160.0,3502.0 1152.0,3474.0 1146.0,3466.0 C 1140.0,3458.0 1066.0,3420.0 982.0,3381.0 L 829.0,3310.0 L 632.0,3309.0 C 524.0,3309.0 390.0,3303.0 335.0,3297.0 L 235.0,3285.0 L 178.0,3200.0 C 125.0,3122.0 115.0,3113.0 66.0,3095.0 C 36.0,3084.0 9.0,3072.0 6.0,3069.0 C 1.0,3064.0 9.0,3035.0 35.0,2962.0 C 38.0,2953.0 56.0,2956.0 106.0,2975.0 C 142.0,2989.0 178.0,3000.0 186.0,3000.0 C 193.0,3000.0 207.0,2975.0 217.0,2944.0 L 234.0,2888.0 L 320.0,2894.0 C 367.0,2897.0 450.0,2902.0 505.0,2905.0 L 605.0,2911.0 L 750.0,2766.0 L 895.0,2620.0 L 857.0,2547.0 L 819.0,2475.0 L 848.0,2341.0 L 878.0,2207.0 L 927.0,2165.0 C 953.0,2142.0 988.0,2112.0 1005.0,2098.0 L 1034.0,2072.0 L 956.0,1985.0 L 877.0,1899.0 L 909.0,1792.0 C 927.0,1734.0 966.0,1638.0 996.0,1579.0 L 1050.0,1471.0 L 983.0,1496.0 C 946.0,1510.0 911.0,1524.0 906.0,1528.0 C 886.0,1540.0 942.0,1472.0 1027.0,1382.0 L 1115.0,1289.0 L 1310.0,1260.0 C 1494.0,1232.0 1519.0,1225.0 1766.0,1140.0 L 2028.0,1050.0 L 2244.0,1050.0 L 2461.0,1050.0 L 2686.0,984.0 L 2912.0,918.0 L 3073.0,976.0 L 3235.0,1033.0 L 3520.0,1051.0 C 3677.0,1061.0 3828.0,1069.0 3856.0,1069.0 L 3907.0,1070.0 L 3914.0,1118.0 C 3917.0,1144.0 3923.0,1224.0 3927.0,1297.0 L 3933.0,1429.0 L 4019.0,1458.0 C 4066.0,1474.0 4105.0,1491.0 4105.0,1496.0 C 4105.0,1501.0 4101.0,1578.0 4096.0,1667.0 C 4088.0,1827.0 4088.0,1830.0 4115.0,1910.0 C 4136.0,1972.0 4146.0,1991.0 4163.0,1995.0 C 4193.0,2002.0 4331.0,2030.0 4334.0,2030.0 C 4336.0,2030.0 4377.0,1978.0 4424.0,1915.0 C 4501.0,1812.0 4517.0,1797.0 4566.0,1775.0 C 4653.0,1737.0 4648.0,1734.0 4694.0,1843.0 C 4726.0,1919.0 4757.0,1969.0 4830.0,2064.0 L 4924.0,2187.0 L 5060.0,2264.0 L 5195.0,2342.0 L 5286.0,2295.0 L 5376.0,2247.0 L 5546.0,2264.0 C 5754.0,2284.0 5776.0,2284.0 5922.0,2263.0 L 6040.0,2247.0 L 6097.0,2297.0 C 6129.0,2324.0 6160.0,2349.0 6167.0,2353.0 C 6173.0,2357.0 6204.0,2348.0 6235.0,2333.0 L 6291.0,2305.0 L 6382.0,2354.0 L 6472.0,2402.0 L 6521.0,2354.0 L 6570.0,2306.0 L 6656.0,2334.0 L 6742.0,2362.0 L 6773.0,2431.0 C 6798.0,2490.0 6810.0,2505.0 6851.0,2530.0 C 6906.0,2563.0 6906.0,2553.0 6852.0,2670.0 L 6823.0,2736.0 L 6842.0,2784.0 C 6852.0,2810.0 6876.0,2905.0 6895.0,2994.0 C 6944.0,3229.0 6953.0,3264.0 6961.0,3274.0 C 6965.0,3278.0 7133.0,3300.0 7335.0,3321.0 L 7701.0,3360.0 L 7855.0,3244.0 L 8010.0,3128.0 L 8047.0,3161.0 C 8068.0,3179.0 8157.0,3262.0 8245.0,3346.0 C 8333.0,3429.0 8453.0,3537.0 8512.0,3585.0 C 8598.0,3655.0 8622.0,3679.0 8630.0,3709.0 C 8635.0,3729.0 8640.0,3821.0 8640.0,3914.0 L 8640.0,4083.0 L 8595.0,4138.0 C 8570.0,4168.0 8550.0,4195.0 8550.0,4199.0 C 8550.0,4203.0 8575.0,4214.0 8605.0,4224.0 L 8660.0,4241.0 L 8729.0,4378.0 C 8794.0,4508.0 8798.0,4522.0 8815.0,4639.0 C 8833.0,4758.0 8833.0,4765.0 8815.0,4835.0 L 8797.0,4908.0 L 8835.0,5002.0 L 8873.0,5095.0 L 8855.0,5226.0 L 8837.0,5357.0 L 8905.0,5482.0 C 8967.0,5599.0 8979.0,5615.0 9074.0,5702.0 C 9252.0,5868.0 9237.0,5859.0 9383.0,5901.0 L 9515.0,5939.0 L 9632.0,5929.0 L 9750.0,5918.0 L 9857.0,5976.0 C 9988.0,6046.0 10243.0,6243.0 10236.0,6269.0 C 10222.0,6318.0 10147.0,6556.0 10144.0,6561.0 C 10142.0,6564.0 10036.0,6549.0 9909.0,6528.0 L 9677.0,6489.0 L 9506.0,6546.0 C 9383.0,6587.0 9292.0,6625.0 9180.0,6683.0 C 9039.0,6757.0 9016.0,6765.0 8920.0,6782.0 C 8862.0,6792.0 8785.0,6800.0 8748.0,6800.0 C 8690.0,6800.0 8673.0,6804.0 8630.0,6831.0 C 8590.0,6856.0 8581.0,6866.0 8585.0,6883.0 C 8588.0,6895.0 8601.0,6974.0 8615.0,7058.0 L 8640.0,7211.0 L 8700.0,7291.0 C 8740.0,7344.0 8760.0,7381.0 8760.0,7400.0 C 8760.0,7421.0 8771.0,7436.0 8807.0,7464.0 C 8833.0,7484.0 8880.0,7531.0 8912.0,7569.0 L 8971.0,7639.0 L 8941.0,7697.0 C 8925.0,7729.0 8909.0,7781.0 8905.0,7813.0 C 8901.0,7844.0 8894.0,7870.0 8890.0,7870.0 C 8886.0,7870.0 8861.0,7851.0 8834.0,7828.0 C 8807.0,7805.0 8778.0,7780.0 8769.0,7773.0 C 8755.0,7761.0 8730.0,7762.0 8604.0,7779.0 C 8523.0,7791.0 8421.0,7800.0 8379.0,7800.0 C 8315.0,7800.0 8283.0,7806.0 8198.0,7837.0 C 8104.0,7871.0 8087.0,7881.0 8002.0,7955.0 C 7880.0,8063.0 7827.0,8085.0 7622.0,8111.0 L 7468.0,8131.0 L 7366.0,8070.0 L 7264.0,8010.0 L 7159.0,8009.0 C 7102.0,8009.0 7033.0,8005.0 7006.0,8001.0 C 6944.0,7991.0 6872.0,8006.0 6808.0,8044.0 C 6764.0,8070.0 6761.0,8074.0 6754.0,8126.0 C 6750.0,8161.0 6742.0,8184.0 6731.0,8189.0 C 6708.0,8202.0 6356.0,8280.0 6256.0,8294.0 L 6175.0,8306.0 L 6076.0,8257.0 L 5977.0,8208.0 L 5900.0,8219.0 C 5848.0,8226.0 5811.0,8226.0 5789.0,8219.0 C 5743.0,8206.0 5630.0,8217.0 5542.0,8245.0 C 5457.0,8272.0 5421.0,8267.0 5356.0,8219.0 C 5323.0,8195.0 5306.0,8190.0 5258.0,8190.0 L 5200.0,8190.0 L 5134.0,8323.0 C 5097.0,8395.0 5063.0,8458.0 5057.0,8461.0 C 5052.0,8465.0 5029.0,8471.0 5006.0,8474.0 C 4965.0,8481.0 4660.0,8547.0 4628.0,8556.0 C 4612.0,8561.0 4610.0,8575.0 4610.0,8659.0 L 4610.0,8757.0 L 4565.0,8774.0 C 4541.0,8784.0 4519.0,8799.0 4516.0,8808.0 C 4514.0,8817.0 4508.0,8866.0 4505.0,8917.0 L 4498.0,9009.0 L 4427.0,9012.0 L 4356.0,9015.0 L 4293.0,9104.0 C 4259.0,9152.0 4229.0,9195.0 4226.0,9197.0 C 4223.0,9200.0 4186.0,9190.0 4142.0,9175.0 L 4064.0,9147.0 L 3949.0,9233.0 C 3885.0,9281.0 3831.0,9320.0 3829.0,9320.0 C 3827.0,9320.0 3778.0,9292.0 3720.0,9257.0" fill="pink"/>
</svg>

<?xml version="1.0" standalone="no"?>
<!DOCTYPE svg PUBLIC "-//W3C//DTD SVG 20010904//EN"
 "http://www.w3.org/TR/2001/REC-SVG-20010904/DTD/svg10.dtd">
<svg version="1.0" xmlns="http://www.w3.org/2000/svg"
 width="1024.000000pt" height="1024.000000pt" viewBox="0 0 1024.000000 1024.000000"
 preserveAspectRatio="xMidYMid meet">
<metadata>
Created by potrace 1.10, written by Peter Selinger 2001-2011
</metadata>
<g transform="translate(0.000000,1024.000000) scale(0.100000,-0.100000)"
fill="#000000" stroke="none">
<path d="M3720 9257 c-58 -35 -149 -87 -203 -116 l-98 -53 -57 19 c-55 19 -60
19 -134 3 -42 -10 -83 -20 -92 -23 -8 -3 -36 -44 -62 -91 -26 -47 -53 -86 -58
-86 -6 0 -84 -9 -174 -19 l-163 -19 -95 29 c-52 15 -98 30 -102 33 -4 2 -47
54 -97 115 -70 85 -96 110 -115 110 -14 1 -104 -11 -201 -26 l-176 -26 -28
-95 c-23 -81 -26 -106 -21 -171 l7 -76 -115 -120 -115 -120 -1 -102 0 -101 38
-9 37 -9 6 -79 c5 -70 12 -94 58 -189 39 -80 58 -134 72 -208 10 -54 19 -106
19 -116 0 -10 -33 -39 -85 -72 l-85 -55 0 -60 0 -60 -98 -28 c-68 -20 -126
-47 -194 -88 l-98 -58 -67 28 c-49 21 -97 32 -172 40 -58 5 -108 8 -111 6 -4
-2 -10 -39 -14 -82 -3 -43 -11 -128 -17 -190 -13 -126 -2 -114 -116 -128 l-52
-7 -67 -104 -66 -105 -52 3 -51 3 -8 -76 -9 -75 60 -120 c41 -82 81 -143 127
-196 l66 -76 72 -7 c130 -11 123 -7 152 -96 15 -43 25 -83 23 -89 -2 -5 -63
-60 -136 -123 -123 -105 -144 -119 -270 -176 -75 -35 -142 -68 -149 -74 -6 -7
-61 -134 -122 -283 -61 -149 -133 -320 -161 -379 -28 -60 -49 -114 -47 -119 3
-6 16 -18 30 -25 25 -13 30 -11 121 63 l95 76 77 0 c71 0 94 6 258 67 100 36
186 66 191 66 8 0 261 -163 293 -188 1 -1 -2 -32 -8 -68 -10 -63 -9 -68 34
-188 24 -68 47 -132 51 -141 5 -12 23 -20 55 -24 26 -3 53 -9 59 -13 10 -6
249 -509 254 -534 1 -5 -50 -50 -113 -99 -63 -49 -163 -132 -222 -184 -104
-92 -108 -97 -114 -145 -4 -27 -12 -55 -18 -63 -6 -8 -80 -46 -164 -85 l-153
-71 -197 -1 c-108 0 -242 -6 -297 -12 l-100 -12 -57 -85 c-53 -78 -63 -87
-112 -105 -30 -11 -57 -23 -60 -26 -5 -5 3 -34 29 -107 3 -9 21 -6 71 13 36
14 72 25 80 25 7 0 21 -25 31 -56 l17 -56 86 6 c47 3 130 8 185 11 l100 6 145
-145 145 -146 -38 -73 -38 -72 29 -134 30 -134 49 -42 c26 -23 61 -53 78 -67
l29 -26 -78 -87 -79 -86 32 -107 c18 -58 57 -154 87 -213 l54 -108 -67 25
c-37 14 -72 28 -77 32 -20 12 36 -56 121 -146 l88 -93 195 -29 c184 -28 209
-35 456 -120 l262 -90 216 0 217 0 225 -66 226 -66 161 58 162 57 285 18 c157
10 308 18 336 18 l51 1 7 48 c3 26 9 106 13 179 l6 132 86 29 c47 16 86 33 86
38 0 5 -4 82 -9 171 -8 160 -8 163 19 243 21 62 31 81 48 85 30 7 168 35 171
35 2 0 43 -52 90 -115 77 -103 93 -118 142 -140 87 -38 82 -41 128 68 32 76
63 126 136 221 l94 123 136 77 135 78 91 -47 90 -48 170 17 c208 20 230 20
376 -1 l118 -16 57 50 c32 27 63 52 70 56 6 4 37 -5 68 -20 l56 -28 91 49 90
48 49 -48 49 -48 86 28 86 28 31 69 c25 59 37 74 78 99 55 33 55 23 1 140
l-29 66 19 48 c10 26 34 121 53 210 49 235 58 270 66 280 4 4 172 26 374 47
l366 39 154 -116 155 -116 37 33 c21 18 110 101 198 185 88 83 208 191 267
239 86 70 110 94 118 124 5 20 10 112 10 205 l0 169 -45 55 c-25 30 -45 57
-45 61 0 4 25 15 55 25 l55 17 69 137 c65 130 69 144 86 261 18 119 18 126 0
196 l-18 73 38 94 38 93 -18 131 -18 131 68 125 c62 117 74 133 169 220 178
166 163 157 309 199 l132 38 117 -10 118 -11 107 58 c131 70 386 267 379 293
-14 49 -89 287 -92 292 -2 3 -108 -12 -235 -33 l-232 -39 -171 57 c-123 41
-214 79 -326 137 -141 74 -164 82 -260 99 -58 10 -135 18 -172 18 -58 0 -75 4
-118 31 -40 25 -49 35 -45 52 3 12 16 91 30 175 l25 153 60 80 c40 53 60 90
60 109 0 21 11 36 47 64 26 20 73 67 105 105 l59 70 -30 58 c-16 32 -32 84
-36 116 -4 31 -11 57 -15 57 -4 0 -29 -19 -56 -42 -27 -23 -56 -48 -65 -55
-14 -12 -39 -11 -165 6 -81 12 -183 21 -225 21 -64 0 -96 6 -181 37 -94 34
-111 44 -196 118 -122 108 -175 130 -380 156 l-154 20 -102 -61 -102 -60 -105
-1 c-57 0 -126 -4 -153 -8 -62 -10 -134 5 -198 43 -44 26 -47 30 -54 82 -4 35
-12 58 -23 63 -23 13 -375 91 -475 105 l-81 12 -99 -49 -99 -49 -77 11 c-52 7
-89 7 -111 0 -46 -13 -159 -2 -247 26 -85 27 -121 22 -186 -26 -33 -24 -50
-29 -98 -29 l-58 0 -66 133 c-37 72 -71 135 -77 138 -5 4 -28 10 -51 13 -41 7
-346 73 -378 82 -16 5 -18 19 -18 103 l0 98 -45 17 c-24 10 -46 25 -49 34 -2
9 -8 58 -11 109 l-7 92 -71 3 -71 3 -63 89 c-34 48 -64 91 -67 93 -3 3 -40 -7
-84 -22 l-78 -28 -115 86 c-64 48 -118 87 -120 87 -2 0 -51 -28 -109 -63z"/>
</g>
</svg>
